markets/SHIB.svg

<svg width="42" height="42" viewBox="0 0 42 42" fill="none" xmlns="http://www.w3.org/2000/svg">
<g clip-path="url(#clip0_7267_35727)">
<ellipse cx="21" cy="21" rx="21" ry="21" fill="#1C2951"/>
<g clip-path="url(#clip1_7267_35727)">
<path d="M28.1553 9.44473C27.3533 10.2377 26.6186 11.0971 25.9655 12.0135L25.759 11.947C24.5681 11.5624 23.334 11.325 22.0902 11.2443C21.7157 11.2158 20.3182 11.2158 19.862 11.2443C18.4838 11.3345 17.4274 11.5386 16.2268 11.9517C16.1788 11.9707 16.1356 11.985 16.0924 11.9992C15.4153 11.0876 14.6613 10.2329 13.8306 9.44947C17.8163 7.43153 22.4792 7.18937 26.6522 8.77999C27.0988 8.94617 27.5358 9.14085 27.9632 9.34976L28.1553 9.44473Z" fill="#F00500"/>
<path d="M35.5891 27.4543C34.984 29.1589 34.0764 30.74 32.8999 32.1169C32.2612 32.8576 31.5553 33.5366 30.7966 34.1539C29.0198 35.5688 26.9453 36.5802 24.7315 37.1119C22.2824 37.696 19.7277 37.696 17.2786 37.1119C15.06 36.5802 12.9903 35.5688 11.2135 34.1539C10.4548 33.5366 9.74887 32.8576 9.11019 32.1169C5.72469 28.1618 4.69704 22.7299 6.421 17.8346C6.74755 16.9277 7.15573 16.0541 7.64554 15.2232C7.87124 14.8433 8.14977 14.416 8.28423 14.2403C8.74523 16.2013 9.31188 17.9248 9.52317 18.5468C9.50877 18.5801 9.48956 18.6181 9.47035 18.6513C8.35145 20.8924 7.74639 23.0528 7.60233 25.3509C7.60233 25.3794 7.59752 25.4126 7.59752 25.4411C7.5591 26.1296 7.57831 26.4572 7.69356 26.8893C8.05372 28.2425 9.16302 29.7334 10.9014 31.1958C13.749 33.5888 17.6099 35.3172 20.5344 35.5166C23.5838 35.7207 28.0834 33.9592 31.0799 31.3857C31.5505 30.9726 31.9923 30.5358 32.4053 30.0705C32.703 29.7286 33.1448 29.1399 33.1112 29.1399C33.1016 29.1399 33.1112 29.1304 33.1304 29.1209C33.1448 29.1114 33.1592 29.0971 33.1496 29.0876C33.1448 29.0829 33.1544 29.0686 33.1688 29.0639C33.1832 29.0592 33.1928 29.0497 33.188 29.0402C33.1832 29.0307 33.188 29.0212 33.2072 29.0164C33.2216 29.0117 33.2264 28.9974 33.2216 28.9879C33.2168 28.9784 33.2216 28.9689 33.2313 28.9689C33.2409 28.9689 33.2505 28.9547 33.2505 28.9452C33.2505 28.9357 33.2601 28.9215 33.2697 28.9215C33.2793 28.9215 33.2889 28.912 33.2889 28.9025C33.3033 28.8645 33.3273 28.8265 33.3513 28.7933C33.4233 28.6841 33.7115 28.176 33.7499 28.0905C34.0236 27.478 34.1965 26.932 34.2781 26.386C34.3165 26.1248 34.3405 25.6453 34.3213 25.5313C34.3165 25.5123 34.3165 25.4791 34.3117 25.4269C34.3021 25.3319 34.2973 25.1894 34.2877 25.047C34.2781 24.8333 34.2589 24.5342 34.2445 24.387C34.038 22.2314 33.481 20.4698 32.4245 18.6038C32.3813 18.5326 32.3429 18.4614 32.3188 18.4044C32.3092 18.3902 32.3044 18.3759 32.2996 18.3664C32.4485 17.9248 33.0584 16.0778 33.5434 13.9649L33.553 13.9744L33.625 14.0694C33.7499 14.2356 34.0812 14.7294 34.2301 14.9668C34.9072 16.0588 35.4354 17.2316 35.81 18.4566C36.6792 21.4052 36.6071 24.5485 35.5891 27.4543Z" fill="#F00500"/>
<path d="M29.3558 21.7803C29.3414 21.8563 29.1157 22.0842 28.89 22.2504C28.2273 22.7299 27.0412 23.1762 25.8359 23.3899C25.1492 23.5134 24.4625 23.5324 24.256 23.4326C24.1215 23.3662 24.1023 23.3139 24.1503 23.143C24.2512 22.7869 24.5777 22.3976 25.0868 22.032C25.3461 21.8468 26.3977 21.2153 26.8875 20.9494C27.6943 20.5126 28.3474 20.2514 28.7892 20.1897C28.9284 20.1707 29.0965 20.1659 29.1493 20.1897C29.2358 20.2229 29.3318 20.4746 29.3702 20.7785C29.3895 20.9399 29.3798 21.6521 29.3558 21.7803Z" fill="black"/>
<path d="M18.0421 23.3519C18.0133 23.4089 17.8693 23.4706 17.706 23.4944C17.5427 23.5181 17.0433 23.5039 16.76 23.4706C15.7419 23.3377 14.6614 23.0291 13.8739 22.6492C13.4321 22.4356 13.1152 22.2219 12.8798 21.9892L12.7454 21.8515L12.731 21.6711C12.707 21.3577 12.7118 20.8639 12.7502 20.6882C12.7742 20.5411 12.827 20.3986 12.8991 20.2704C12.9375 20.2229 12.9375 20.2229 13.1104 20.2229C13.3216 20.2229 13.4993 20.2562 13.7875 20.3464C14.3781 20.5268 15.2569 20.9636 16.3278 21.5999C17.2114 22.1222 17.5427 22.3786 17.7972 22.7299C17.9701 22.9483 18.0853 23.257 18.0421 23.3519Z" fill="black"/>
<path d="M24.8419 29.9613C24.8419 29.9755 24.7843 30.2034 24.7123 30.4741C24.6402 30.7447 24.5826 30.9631 24.5826 30.9726C24.5298 30.9774 24.4818 30.9821 24.4289 30.9774H24.2753L24.064 31.4712C23.9487 31.7418 23.8431 31.9935 23.8287 32.0315L23.7999 32.0979L23.699 31.9365L23.5982 31.7751V30.4598L23.5597 30.4693C23.4781 30.4883 22.8971 30.5643 22.6425 30.588C21.5909 30.6925 20.5344 30.6688 19.4875 30.5216C19.3195 30.4978 19.1754 30.4788 19.1706 30.4836C19.1658 30.4883 19.1706 30.7922 19.1802 31.1673L19.1946 31.8415L19.113 31.965C19.0698 32.0315 19.0265 32.0884 19.0265 32.0932C19.0121 32.1074 18.9641 32.0315 18.8537 31.8131C18.7336 31.5851 18.6472 31.343 18.5847 31.0913L18.5511 30.9536L18.4023 30.9631L18.2534 30.9774L18.215 30.8017C18.1958 30.7068 18.1718 30.5596 18.1622 30.4788L18.1478 30.3269L18.0229 30.2177C17.9509 30.156 17.8788 30.0942 17.8644 30.0847C17.8404 30.0658 17.8308 30.0325 17.8308 30.004V29.9471L18.4311 29.9518L19.0313 29.9565L19.0506 30.0183L19.0698 30.08L19.2763 30.0895C19.3915 30.0942 19.7565 30.1037 20.083 30.1132L20.6833 30.1275L20.8369 29.8901L20.9954 29.6527H21.1971L21.1923 29.1589L21.1875 28.6651L20.9234 28.5511C20.0734 28.1808 19.574 27.7582 19.3867 27.2454C19.3483 27.1409 19.3483 27.1029 19.3387 26.6281C19.3339 26.1581 19.3339 26.1153 19.3675 26.0109C19.4347 25.7735 19.622 25.5883 19.8621 25.5266C19.9437 25.5028 20.1598 25.5028 21.2931 25.5028L22.6281 25.5076L22.777 25.5788C22.9547 25.6643 23.0363 25.726 23.1372 25.8589C23.2524 26.0109 23.286 26.1296 23.286 26.4192C23.286 26.8323 23.2572 27.1884 23.214 27.3308C23.1516 27.5255 23.0555 27.7107 22.9355 27.8769C22.6954 28.1808 22.2584 28.4846 21.8598 28.6223L21.7445 28.6651L21.7493 29.1636L21.7541 29.6622L21.8598 29.6717L21.9654 29.6812L22.1095 29.8948L22.2488 30.1085H22.8922C23.2476 30.1085 23.5597 30.1132 23.5886 30.118C23.6366 30.1275 23.6462 30.1227 23.6942 30.042L23.7518 29.9565H24.3041C24.7171 29.9376 24.8419 29.9471 24.8419 29.9613Z" fill="black"/>
<path d="M22.3063 31.324C22.2151 31.3762 22.1527 31.4 22.1383 31.3905C22.1238 31.3857 22.0566 31.3287 21.9846 31.2765L21.8549 31.1721L21.7205 31.3145C21.4275 31.6279 21.4179 31.6421 21.3315 31.6469C21.197 31.6611 21.1682 31.6374 21.005 31.3952C20.9185 31.2718 20.8513 31.1673 20.8513 31.1673C20.8513 31.1673 20.7889 31.1578 20.7168 31.1531L20.5824 31.1388L20.5199 31.267L20.4575 31.3952L20.3471 31.362C20.2606 31.3335 20.1742 31.3003 20.0925 31.2623L19.9485 31.191V30.9204L21.2258 30.9252L22.5032 30.9299L22.508 31.0581C22.5128 31.21 22.5176 31.2053 22.3063 31.324Z" fill="black"/>
<path d="M34.3118 25.5313C34.307 25.5123 34.307 25.4791 34.3022 25.4269C33.1497 25.3034 29.8602 25.2274 26.8061 27.7202C26.8061 27.7202 25.8216 23.257 21.2116 23.257C16.6015 23.257 14.892 27.7202 14.892 27.7202C12.3085 24.971 8.85093 25.1705 7.60237 25.3509C7.60237 25.3794 7.59757 25.4126 7.59757 25.4411C7.55915 26.1296 7.57836 26.4572 7.69361 26.8893C8.05377 28.2425 9.16306 29.7334 10.9014 31.1958C13.7491 33.5889 17.61 35.3172 20.5345 35.5166C23.5838 35.7208 28.0834 33.9592 31.0799 31.3857C31.5506 30.9726 31.9923 30.5358 32.4053 30.0705C32.7031 29.7286 33.1449 29.1399 33.1112 29.1399C33.1016 29.1399 33.1112 29.1304 33.1305 29.1209C33.1449 29.1114 33.1593 29.0971 33.1497 29.0876C33.1449 29.0829 33.1545 29.0687 33.1689 29.0639C33.1833 29.0592 33.1929 29.0497 33.1881 29.0402C33.1833 29.0307 33.1881 29.0212 33.2073 29.0164C33.2217 29.0117 33.2265 28.9974 33.2217 28.9879C33.2169 28.9784 33.2217 28.9689 33.2313 28.9689C33.2409 28.9689 33.2505 28.9547 33.2505 28.9452C33.2505 28.9357 33.2601 28.9215 33.2697 28.9215C33.2793 28.9215 33.2889 28.912 33.2889 28.9025C33.3033 28.8645 33.3273 28.8265 33.3514 28.7933C33.4234 28.6841 33.7115 28.176 33.7499 28.0905C34.0236 27.478 34.1965 26.932 34.2782 26.386C34.307 26.1248 34.331 25.6453 34.3118 25.5313ZM22.3065 31.324C22.2152 31.3762 22.1528 31.4 22.1384 31.3905C22.124 31.3857 22.0568 31.3288 21.9847 31.2765L21.8551 31.1721L21.7206 31.3145C21.4277 31.6279 21.4181 31.6421 21.3316 31.6469C21.1972 31.6611 21.1684 31.6374 21.0051 31.3952C20.9187 31.2718 20.8514 31.1673 20.8514 31.1673C20.8514 31.1673 20.789 31.1578 20.717 31.1531L20.5825 31.1388L20.5201 31.267L20.4577 31.3952L20.3472 31.362C20.2608 31.3335 20.1743 31.3003 20.0927 31.2623L19.9486 31.1911V30.9204L21.226 30.9252L22.5034 30.9299L22.5082 31.0581C22.513 31.2101 22.5178 31.2053 22.3065 31.324ZM24.7075 30.4693C24.6355 30.74 24.5779 30.9584 24.5779 30.9679C24.525 30.9726 24.477 30.9774 24.4242 30.9726H24.2705L24.064 31.4712C23.9488 31.7418 23.8431 31.9935 23.8287 32.0315L23.7999 32.0979L23.6991 31.9365L23.5982 31.7751V30.4599L23.5598 30.4693C23.4782 30.4883 22.8971 30.5643 22.6426 30.5881C21.591 30.6925 20.5345 30.6688 19.4876 30.5216C19.3195 30.4978 19.1755 30.4788 19.1707 30.4836C19.1659 30.4883 19.1707 30.7922 19.1803 31.1673L19.1947 31.8416L19.1131 31.965C19.0698 32.0315 19.0266 32.0885 19.0266 32.0932C19.0122 32.1074 18.9642 32.0315 18.8537 31.8131C18.7337 31.5852 18.6473 31.343 18.5848 31.0914L18.5512 30.9537L18.4023 30.9632L18.2535 30.9774L18.2151 30.8017C18.1959 30.7068 18.1718 30.5596 18.1622 30.4788L18.1478 30.3269L18.023 30.2177C17.9509 30.156 17.8789 30.0942 17.8645 30.0848C17.8405 30.0658 17.8309 30.0325 17.8309 30.004V29.9471L18.4312 29.9518L19.0314 29.9566L19.0506 30.0183L19.0698 30.08L19.2763 30.0895C19.3916 30.0942 19.7565 30.1037 20.0831 30.1132L20.6834 30.1275L20.837 29.8901L20.9955 29.6527H21.1972L21.1924 29.1589L21.1876 28.6651L20.9235 28.5511C20.0735 28.1808 19.5741 27.7582 19.3868 27.2454C19.3484 27.1409 19.3484 27.1029 19.3388 26.6281C19.334 26.1581 19.334 26.1153 19.3676 26.0109C19.4348 25.7735 19.6221 25.5883 19.8622 25.5266C19.9438 25.5028 20.1599 25.5028 21.2932 25.5028L22.6282 25.5076L22.7771 25.5788C22.9548 25.6643 23.0364 25.726 23.1372 25.8589C23.2525 26.0109 23.2861 26.1296 23.2861 26.4192C23.2861 26.8323 23.2573 27.1884 23.2141 27.3308C23.1516 27.5255 23.0556 27.7107 22.9355 27.8769C22.6954 28.1808 22.2584 28.4846 21.8599 28.6223L21.7446 28.6651L21.7494 29.1636L21.7542 29.6622L21.8599 29.6717L21.9655 29.6812L22.1096 29.8948L22.2488 30.1085H22.8923C23.2477 30.1085 23.5598 30.1132 23.5886 30.118C23.6367 30.1275 23.6463 30.1227 23.6943 30.042L23.7519 29.9566H24.3042C24.7315 29.9566 24.8564 29.9613 24.8564 29.9755C24.842 29.9708 24.7796 30.2035 24.7075 30.4693Z" fill="white"/>
<path d="M34.2734 25.047C34.2638 24.8333 34.2445 24.5342 34.2301 24.387C34.0237 22.2314 33.4666 20.4698 32.4101 18.6038C32.3669 18.5326 32.3285 18.4614 32.3045 18.4044C32.2949 18.3902 32.2901 18.3759 32.2853 18.3664C32.4341 17.9248 33.044 16.0778 33.529 13.9649C34.1869 11.0971 34.6047 7.7449 33.3273 6.73831C33.3273 6.73831 31.1184 6.57687 28.1603 9.44473C27.3583 10.2377 26.6236 11.0971 25.9705 12.0135L25.764 11.947C24.5731 11.5624 23.3389 11.325 22.0952 11.2443C21.7206 11.2158 20.3232 11.2158 19.867 11.2443C18.4888 11.3345 17.4323 11.5386 16.2318 11.9517C16.1838 11.9707 16.1405 11.985 16.0973 11.9992C15.4202 11.0876 14.6663 10.2329 13.8355 9.44948C10.7574 6.56737 8.46676 6.73356 8.46676 6.73356C7.11256 7.77339 7.57357 11.2775 8.27468 14.2403C8.73568 16.2013 9.30233 17.9248 9.51362 18.5468C9.49922 18.5801 9.48001 18.6181 9.4608 18.6513C8.34191 20.8924 7.73684 23.0528 7.59277 25.3509C8.84613 25.1705 12.2989 24.9663 14.8872 27.7202C14.8872 27.7202 16.5968 23.257 21.2068 23.257C25.8168 23.257 26.8013 27.7202 26.8013 27.7202C29.8554 25.2274 33.1449 25.3082 34.2974 25.4269C34.2926 25.3319 34.283 25.1895 34.2734 25.047ZM10.4212 16.7568C10.4212 16.7568 8.62523 12.3173 9.08623 9.78184C9.16307 9.35451 9.30713 8.97941 9.53283 8.69453C9.53283 8.69453 11.5689 8.89395 14.8536 12.5025C14.8536 12.5025 14.2293 12.8016 13.3937 13.4379C13.3937 13.4379 13.3889 13.4426 13.3841 13.4426C12.4765 14.1311 11.3144 15.2232 10.4212 16.7568ZM18.0422 23.3519C18.0134 23.4089 17.8693 23.4706 17.706 23.4944C17.5428 23.5181 17.0434 23.5039 16.76 23.4706C15.742 23.3377 14.6615 23.0291 13.874 22.6492C13.4322 22.4355 13.1152 22.2219 12.8799 21.9892L12.7455 21.8515L12.731 21.6711C12.707 21.3577 12.7118 20.8639 12.7503 20.6882C12.7743 20.5411 12.8271 20.3986 12.8991 20.2704C12.9375 20.2229 12.9375 20.2229 13.1104 20.2229C13.3217 20.2229 13.4994 20.2562 13.7875 20.3464C14.3782 20.5268 15.257 20.9636 16.3278 21.5999C17.2114 22.1222 17.5428 22.3786 17.7973 22.7299C17.9702 22.9483 18.0854 23.257 18.0422 23.3519ZM29.356 21.7803C29.3416 21.8563 29.1159 22.0842 28.8902 22.2504C28.2275 22.7299 27.0414 23.1763 25.836 23.3899C25.1493 23.5134 24.4626 23.5324 24.2561 23.4327C24.1217 23.3662 24.1025 23.3139 24.1505 23.143C24.2513 22.7869 24.5779 22.3976 25.0869 22.032C25.3462 21.8468 26.3979 21.2153 26.8877 20.9494C27.6945 20.5126 28.3475 20.2514 28.7893 20.1897C28.9286 20.1707 29.0967 20.166 29.1495 20.1897C29.2359 20.2229 29.332 20.4746 29.3704 20.7785C29.3896 20.9399 29.38 21.6521 29.356 21.7803ZM28.5588 13.4379L28.5492 13.4331C27.7425 12.7969 27.1374 12.4978 27.1374 12.4978C30.3116 8.8892 32.2757 8.68978 32.2757 8.68978C32.4918 8.97941 32.631 9.34977 32.7079 9.77709C33.1545 12.3126 31.4209 16.7568 31.4209 16.7568C30.6958 15.4796 29.721 14.3495 28.5588 13.4379Z" fill="#FFA409"/>
<path d="M32.7127 9.77709C32.3381 9.72961 30.5662 9.72011 28.5589 13.4379L28.5493 13.4331C27.7425 12.7969 27.1375 12.4978 27.1375 12.4978C30.3117 8.88919 32.2757 8.68977 32.2757 8.68977C32.4966 8.97941 32.6359 9.34976 32.7127 9.77709Z" fill="#FF9300"/>
<path d="M31.4257 16.7568C30.6958 15.4748 29.7258 14.3495 28.5588 13.4379C30.5661 9.72011 32.3333 9.72961 32.7127 9.77709C33.1593 12.3173 31.4257 16.7568 31.4257 16.7568Z" fill="#FF8300"/>
<path d="M32.7847 9.79133C32.7607 9.78658 32.7367 9.78183 32.7126 9.77708L32.7847 9.79133Z" fill="#FF8300"/>
<path d="M14.8534 12.4978C14.8534 12.4978 14.2292 12.7969 13.3936 13.4331C13.3936 13.4331 13.3888 13.4379 13.384 13.4379C11.3047 9.71536 9.47507 9.72961 9.0813 9.77709C9.15813 9.34976 9.3022 8.97466 9.5279 8.68977C9.5327 8.68977 11.5688 8.88919 14.8534 12.4978Z" fill="#FF9300"/>
<path d="M13.3889 13.4379C12.4765 14.1311 11.3144 15.2184 10.4212 16.7568C10.4212 16.7568 8.62517 12.3173 9.08617 9.77709C9.47514 9.72961 11.3096 9.72011 13.3889 13.4379Z" fill="#FF8300"/>
<path d="M9.08611 9.77708C9.0621 9.78183 9.03329 9.78658 9.00928 9.79133L9.08611 9.77708Z" fill="#FF8300"/>
<path d="M26.5658 19.2211C26.5658 19.2211 25.0291 19.316 25.2212 18.129C25.4133 16.942 26.6138 16.7995 26.95 16.847C27.2861 16.8945 28.6307 17.3693 28.3906 18.3664C28.1505 19.3635 27.8144 19.1736 27.6223 19.2211C27.4302 19.2686 26.5658 19.2211 26.5658 19.2211Z" fill="white"/>
<path d="M15.2328 19.2211C15.2328 19.2211 13.6961 19.316 13.8882 18.129C14.0803 16.942 15.2808 16.7995 15.617 16.847C15.9531 16.8945 17.2977 17.3693 17.0576 18.3664C16.8175 19.3635 16.4813 19.1736 16.2893 19.2211C16.0972 19.2686 15.2328 19.2211 15.2328 19.2211Z" fill="white"/>
</g>
</g>
<defs>
<clipPath id="clip0_7267_35727">
<rect width="42" height="42" rx="21" fill="white"/>
</clipPath>
<clipPath id="clip1_7267_35727">
<rect width="30.8152" height="30.8152" fill="white" transform="translate(5.59253 6.7337)"/>
</clipPath>
</defs>
</svg>

<svg xmlns="http://www.w3.org/2000/svg" width="42" height="42" fill="none"><g clip-path="url(#a)"><circle cx="21" cy="21" r="21" fill="#1C2951"/><g clip-path="url(#b)"><path fill="#F00500" d="M28.155 9.445a19.675 19.675 0 0 0-2.19 2.569l-.206-.067a15.139 15.139 0 0 0-3.669-.703 29.023 29.023 0 0 0-2.228 0c-1.378.09-2.435.295-3.635.708a2.313 2.313 0 0 1-.135.047 19.403 19.403 0 0 0-2.261-2.55 15.884 15.884 0 0 1 14.132-.1l.192.096ZM35.59 27.454a14.785 14.785 0 0 1-2.69 4.663c-.639.74-1.345 1.42-2.103 2.037a15.588 15.588 0 0 1-6.066 2.958c-2.449.584-5.003.584-7.452 0a15.556 15.556 0 0 1-6.066-2.958 16.634 16.634 0 0 1-2.103-2.037 14.526 14.526 0 0 1-2.689-14.282c.327-.907.735-1.78 1.225-2.612.225-.38.504-.807.638-.983a48.78 48.78 0 0 0 1.24 4.307 1.054 1.054 0 0 1-.054.104c-1.119 2.241-1.724 4.402-1.868 6.7 0 .028-.004.062-.004.09-.039.689-.02 1.016.096 1.448.36 1.354 1.469 2.844 3.207 4.307 2.848 2.393 6.709 4.121 9.633 4.32 3.05.205 7.55-1.557 10.546-4.13.47-.413.912-.85 1.325-1.316.298-.341.74-.93.706-.93-.01 0 0-.01.02-.02.014-.009.028-.023.019-.032-.005-.005.004-.02.019-.024.014-.005.024-.014.019-.024-.005-.01 0-.019.02-.024.014-.004.018-.019.014-.028-.005-.01 0-.02.01-.02.009 0 .019-.013.019-.023s.01-.023.019-.023c.01 0 .019-.01.019-.02a.494.494 0 0 1 .062-.109c.072-.109.36-.617.399-.703.274-.612.447-1.158.528-1.704.038-.261.063-.74.043-.855-.005-.019-.005-.052-.01-.104-.009-.095-.014-.238-.023-.38-.01-.214-.03-.513-.043-.66-.207-2.156-.764-3.917-1.82-5.783a1.654 1.654 0 0 1-.106-.2c-.01-.014-.015-.028-.02-.038.15-.441.76-2.288 1.244-4.401l.01.01.072.094c.125.167.456.66.605.898a14.866 14.866 0 0 1 1.58 3.49c.87 2.948.797 6.091-.22 8.997Z"/><path fill="#000" d="M29.356 21.78c-.015.076-.24.304-.466.47-.663.48-1.849.926-3.054 1.14-.687.123-1.373.142-1.58.043-.134-.067-.154-.12-.106-.29.101-.356.428-.745.937-1.111.26-.185 1.31-.817 1.8-1.083.807-.436 1.46-.698 1.902-.76.14-.018.307-.023.36 0 .087.034.183.286.221.59.02.16.01.873-.014 1.001ZM18.042 23.352c-.029.057-.173.119-.336.142-.163.024-.663.01-.946-.023-1.018-.133-2.099-.442-2.886-.822-.442-.213-.759-.427-.994-.66l-.135-.137-.014-.18c-.024-.314-.02-.808.02-.984a1.28 1.28 0 0 1 .148-.418c.039-.047.039-.047.211-.047.212 0 .39.033.678.123.59.18 1.469.618 2.54 1.254.883.522 1.215.779 1.47 1.13.172.218.287.527.244.622ZM24.842 29.961c0 .015-.058.242-.13.513-.072.27-.13.49-.13.499-.052.004-.1.01-.153.004h-.154l-.211.494c-.115.27-.22.523-.235.56l-.03.067-.1-.162-.1-.16V30.46l-.04.01a15.94 15.94 0 0 1-.917.118c-1.051.104-2.108.08-3.154-.066a3.217 3.217 0 0 0-.317-.038c-.005.004 0 .308.01.683l.014.674-.082.124c-.043.067-.087.123-.087.128-.014.014-.062-.062-.172-.28a3.189 3.189 0 0 1-.27-.722l-.033-.137-.149.01-.149.013-.038-.175a4.952 4.952 0 0 1-.053-.323l-.014-.152-.125-.11c-.072-.061-.144-.123-.159-.132-.024-.02-.033-.053-.033-.081v-.057l.6.005.6.004.02.062.019.062.206.01.807.023.6.015.154-.238.158-.237h.202l-.005-.494-.005-.494-.264-.114c-.85-.37-1.349-.793-1.536-1.306-.039-.104-.039-.142-.048-.617-.005-.47-.005-.513.029-.617a.694.694 0 0 1 .494-.484c.082-.024.298-.024 1.431-.024l1.335.005.149.07c.178.086.26.148.36.28.115.153.149.272.149.561 0 .413-.029.77-.072.912-.062.195-.159.38-.278.546-.24.304-.678.608-1.076.745l-.116.043.005.499.005.498.106.01.105.01.145.213.139.213h.643c.356 0 .668.005.697.01.048.01.057.005.105-.076l.058-.086h.552c.413-.018.538-.009.538.005Z"/><path fill="#000" d="M22.306 31.324c-.09.052-.153.076-.168.066-.014-.004-.081-.061-.153-.114l-.13-.104-.134.142c-.294.314-.303.328-.39.333-.134.014-.163-.01-.326-.252a7.705 7.705 0 0 1-.154-.228s-.062-.01-.134-.014l-.135-.014-.062.128-.063.128-.11-.033a2.354 2.354 0 0 1-.255-.1l-.143-.071v-.27l1.277.004 1.277.005.005.128c.005.152.01.147-.202.266Z"/><path fill="#fff" d="M34.312 25.531c-.005-.019-.005-.052-.01-.104-1.152-.124-4.442-.2-7.496 2.293 0 0-.984-4.463-5.594-4.463s-6.32 4.463-6.32 4.463c-2.583-2.749-6.041-2.55-7.29-2.37 0 .03-.004.063-.004.091-.039.689-.02 1.016.096 1.448.36 1.354 1.47 2.844 3.207 4.307 2.848 2.393 6.709 4.121 9.634 4.32 3.049.205 7.548-1.557 10.545-4.13.47-.413.912-.85 1.325-1.316.298-.341.74-.93.706-.93-.01 0 0-.01.02-.02.014-.009.028-.023.019-.032-.005-.005.005-.02.019-.024.014-.005.024-.014.02-.024-.006-.01 0-.019.018-.024.015-.004.02-.019.015-.028-.005-.01 0-.02.01-.02.009 0 .019-.013.019-.023s.01-.023.019-.023c.01 0 .019-.01.019-.02a.49.49 0 0 1 .062-.109c.072-.109.36-.617.399-.703.274-.612.447-1.158.528-1.704.029-.261.053-.74.034-.855Zm-12.005 5.793c-.092.052-.154.076-.169.066-.014-.004-.081-.061-.153-.114l-.13-.104-.134.142c-.293.314-.303.328-.39.333-.134.014-.163-.01-.326-.252a7.949 7.949 0 0 1-.154-.228s-.062-.01-.134-.014l-.134-.014-.063.128-.062.128-.11-.033a2.352 2.352 0 0 1-.255-.1l-.144-.07v-.272l1.277.005 1.277.005.005.128c.005.152.01.147-.201.266Zm2.4-.855c-.072.271-.13.49-.13.499-.052.005-.1.01-.153.005h-.154l-.206.498c-.115.27-.22.523-.235.56l-.03.067-.1-.162-.1-.16V30.46l-.04.01c-.08.018-.662.094-.916.118-1.052.104-2.108.08-3.155-.066a3.22 3.22 0 0 0-.317-.038c-.005.004 0 .308.01.683l.014.675-.082.123c-.043.067-.086.124-.086.128-.015.014-.063-.062-.173-.28a3.193 3.193 0 0 1-.27-.722l-.033-.137-.149.01-.149.013-.038-.175a4.956 4.956 0 0 1-.053-.323l-.014-.152-.125-.11c-.072-.061-.144-.123-.159-.132-.024-.02-.033-.053-.033-.081v-.057l.6.005.6.005.02.061.019.062.206.01.807.023.6.015.154-.238.159-.237h.201l-.005-.494-.004-.494-.264-.114c-.85-.37-1.35-.793-1.537-1.306-.039-.104-.039-.142-.048-.617-.005-.47-.005-.513.029-.617a.694.694 0 0 1 .494-.484c.082-.024.298-.024 1.431-.024l1.335.005.15.07c.177.086.258.148.36.28.114.153.148.272.148.561 0 .413-.029.77-.072.912-.062.195-.158.38-.278.546-.24.304-.678.608-1.076.745l-.115.043.004.499.005.498.106.01.105.01.145.213.139.213h.643c.356 0 .668.005.697.01.048.01.057.005.105-.076l.058-.085h.552c.428 0 .552.004.552.018-.014-.004-.076.228-.149.494Z"/><path fill="#FFA409" d="M34.273 25.047c-.01-.214-.029-.513-.043-.66-.206-2.156-.763-3.917-1.82-5.783a1.638 1.638 0 0 1-.105-.2c-.01-.014-.015-.028-.02-.038.15-.441.759-2.288 1.244-4.401.658-2.868 1.076-6.22-.202-7.227 0 0-2.209-.161-5.167 2.707a19.675 19.675 0 0 0-2.19 2.569l-.206-.067a15.14 15.14 0 0 0-3.669-.703 29.023 29.023 0 0 0-2.228 0c-1.378.09-2.435.295-3.635.708a2.315 2.315 0 0 1-.135.047 19.395 19.395 0 0 0-2.262-2.55c-3.078-2.882-5.368-2.715-5.368-2.715-1.354 1.04-.893 4.543-.192 7.506a48.78 48.78 0 0 0 1.239 4.307 1.054 1.054 0 0 1-.053.104c-1.12 2.241-1.724 4.402-1.868 6.7 1.253-.18 4.706-.385 7.294 2.37 0 0 1.71-4.464 6.32-4.464S26.8 27.72 26.8 27.72a10.319 10.319 0 0 1 7.496-2.293c-.004-.095-.014-.238-.024-.38Zm-23.852-8.29s-1.796-4.44-1.335-6.975c.077-.427.221-.803.447-1.087 0 0 2.036.199 5.32 3.807 0 0-.624.3-1.46.936 0 0-.004.005-.009.005-.908.688-2.07 1.78-2.963 3.314Zm7.621 6.595c-.029.057-.173.119-.336.142-.163.024-.663.01-.946-.023-1.018-.133-2.099-.442-2.886-.822-.442-.213-.759-.427-.994-.66l-.135-.137-.014-.18c-.024-.314-.02-.808.02-.984.023-.147.076-.29.148-.418.039-.047.039-.047.211-.047.212 0 .39.033.678.123.59.18 1.469.618 2.54 1.254.883.522 1.215.779 1.47 1.13.172.218.287.527.244.622Zm11.314-1.572c-.014.076-.24.304-.466.47-.663.48-1.849.926-3.054 1.14-.687.123-1.373.142-1.58.043-.134-.067-.154-.12-.105-.29.1-.356.427-.745.936-1.111.26-.185 1.31-.817 1.8-1.083.808-.436 1.46-.698 1.902-.76.14-.018.308-.023.36 0 .087.034.183.286.221.59.02.16.01.873-.014 1.001Zm-.797-8.342-.01-.005c-.806-.636-1.412-.935-1.412-.935 3.175-3.609 5.139-3.808 5.139-3.808.216.29.355.66.432 1.087.447 2.536-1.287 6.98-1.287 6.98a11.343 11.343 0 0 0-2.862-3.32Z"/><path fill="#FF9300" d="M32.713 9.777c-.375-.047-2.147-.057-4.154 3.66l-.01-.004c-.806-.636-1.412-.935-1.412-.935 3.175-3.609 5.139-3.808 5.139-3.808.22.29.36.66.437 1.087Z"/><path fill="#FF8300" d="M31.426 16.757a11.298 11.298 0 0 0-2.867-3.32c2.007-3.717 3.774-3.707 4.154-3.66.446 2.54-1.287 6.98-1.287 6.98ZM32.785 9.791l-.072-.014.072.014Z"/><path fill="#FF9300" d="M14.853 12.498s-.624.299-1.46.935c0 0-.004.005-.009.005-2.08-3.723-3.909-3.708-4.303-3.66.077-.428.221-.803.447-1.088.005 0 2.04.2 5.325 3.808Z"/><path fill="#FF8300" d="M13.389 13.438c-.912.693-2.075 1.78-2.968 3.319 0 0-1.796-4.44-1.335-6.98.39-.047 2.224-.057 4.303 3.66ZM9.086 9.777l-.077.014.077-.014Z"/><path fill="#fff" d="M26.566 19.221s-1.537.095-1.345-1.092c.192-1.187 1.393-1.33 1.729-1.282.336.047 1.68.522 1.44 1.52-.24.996-.576.807-.768.854-.192.048-1.056 0-1.056 0ZM15.233 19.221s-1.537.095-1.345-1.092c.192-1.187 1.393-1.33 1.729-1.282.336.047 1.68.522 1.44 1.52-.24.996-.576.807-.768.854-.192.048-1.056 0-1.056 0Z"/></g></g><defs><clipPath id="a"><rect width="42" height="42" fill="#fff" rx="21"/></clipPath><clipPath id="b"><path fill="#fff" d="M5.593 6.734h30.815v30.815H5.593z"/></clipPath></defs></svg>
